!!!COM: Felix Mendelssohn
!!!CNT: Deutsch
!!!TXO: Deutsch
!!!OTL: Allna2chtlich im Traume seh' ich dich
!!!LYR: Heine
!!!OPS: Op. 86
!!!ONM: No. 4
!!!ENC: Daniel Alt & Leigh VanHandel
!!!YOR: Sa2mmtliche Lieder fu2r eine Singstimme 
!!!YOR: Neu revidirt von Dr. L. Benda, Ausgabe fu2r mittlere Stimme
!!!YOR: Braunschweig. Henry Litolff's Verlag. Boston and New York: Arthur P. Schmidt.
!!!ODT: 1851/
!!NB: Date is publication date
**kern	**silbe
*staff1	*
=1-	=1
*clefG2	*
*k[f#c#g#d#]	*
*M2/4	*
2r	.
=2	=2
2r	.
=3	=3
2r	.
=4	=4
2r	.
=5	=5
4r	.
8r	.
{8g#	{All-
=6	=6
8g#	-na2cht-
16g#	-lich
16g#	im
8b	Trau-
16a	-me
16g#	|
=7	=7
8.g#	seh’
16f#	ich
8f#	dich
8f#	und
=8	=8
8e	seh’
8d#	dich
8c#	freund-
8d#	-lich
=9	=9
4f#	gru2-
8e}	-ssen,}
{8g#	{und
=10	=10
8g#	laut
8g#	auf-
8ddn	-wei-
16cc#	-nend
16b	|
=11	=11
8.b	stu2rz’
16a	ich
4a}	mich}
=12	=12
4r	.
8r	.
{8a	{zu
=13	=13
4.g#	dei-
16b	-nen
16a	|
=14	=14
4.g#	su2-
16b	-ssen
16a	|
=15	=15
2g#	Fu2-
=16	=16
4e}	-ssen,}
8r	.
{8g#	{zu
=17	=17
8g#	dei-
8ee	|
8dd#	|
8ccn	-nen
=18	=18
8cc#	su2-
8a	|
8g#	|
8f#	-ssen
=19	=19
4.e	Fu2-
8d#	|
=20	=20
4c#}	-ssen.}
4r	.
=21	=21
2r	.
=22	=22
2r	.
=23	=23
2r	.
=24	=24
4r	.
8r	.
{8g#	{Du
=25	=25
8g#	sagts
8g#	mir
8b	heim-
16a	-lich
16g#	ein
=26	=26
8.g#	lei-
16f#	-ses
8f#	Wort
8f#	und
=27	=27
8e	giebst
16d#	mir
16d#	den
8c#	Strauss
16d#	von
16d#	Cy-
=28	=28
4f#	-pres-
8e}	-sen:}
16r	.
{16g#	{Ich
=29	=29
8g#	wa-
8g#	-che
8ddn	auf,
16cc#	und
16b	der
=30	=30
8.b	Strauss
16a	ist
[4a	fort,
=31	=31
2a]}	|}
=32	=32
4r	.
8r	.
{8a	{und’s
=33	=33
4.g#	Wort
16b	hab’
16a	|
=34	=34
4.g#	ich
16b	ver-
16a	|
=35	=35
[2g#	-ges-
=36	=36
2g#]	|
=37	=37
2c#}	-sen.}
=38	=38
2r	.
==	==
*-	*-

